rendering_styles/style-icons/map-icons-svg/c_mx_seamark_j134_seagrass.svg

<?xml version="1.0" encoding="UTF-8"?>
<svg xmlns="http://www.w3.org/2000/svg" xmlns:xlink="http://www.w3.org/1999/xlink" width="12" height="12" viewBox="0 0 12 12" version="1.1">
<g id="surface1">
<path style="fill:none;stroke-width:13;stroke-linecap:butt;stroke-linejoin:round;stroke:rgb(18.039216%,55.686277%,12.54902%);stroke-opacity:1;stroke-miterlimit:4;" d="M 61.557494 215.98258 C 75.790267 210.46375 89.877808 204.944919 103.674884 201.749807 C 117.326727 198.554695 129.526247 196.811906 143.468555 196.811906 C 157.556096 196.811906 172.805495 199.135624 188.054895 201.459342 " transform="matrix(0.0268966,0,0,0.0268966,2.731034,2.710345)"/>
<path style="fill:none;stroke-width:14.4;stroke-linecap:butt;stroke-linejoin:round;stroke:rgb(18.039216%,55.686277%,12.54902%);stroke-opacity:1;stroke-miterlimit:4;" d="M 181.955135 201.023645 C 180.212346 197.538068 178.469558 193.907259 174.403051 194.197723 C 170.191312 194.488188 162.929693 202.330737 157.265631 202.621201 C 151.456336 202.766434 144.920879 195.650047 140.12821 195.79528 C 135.190309 195.79528 134.173683 202.040272 127.928691 202.911666 C 121.538466 203.928293 109.193714 200.152251 101.932095 201.459342 C 94.670476 202.766434 91.330132 207.704335 84.068513 210.608982 C 76.661661 213.51363 67.221557 216.127812 57.781452 219.03246 " transform="matrix(0.0268966,0,0,0.0268966,2.731034,2.710345)"/>
<path style="fill:none;stroke-width:12.2;stroke-linecap:butt;stroke-linejoin:round;stroke:rgb(18.039216%,55.686277%,12.54902%);stroke-opacity:1;stroke-miterlimit:4;" d="M 145.937505 196.957139 C 150.294477 190.857379 154.506216 184.902851 163.655855 176.479373 C 172.950727 168.055896 190.959542 160.939509 201.271041 146.561504 C 211.58254 132.183498 218.698926 111.270036 225.67008 90.356574 " transform="matrix(0.0268966,0,0,0.0268966,2.731034,2.710345)"/>
<path style="fill:none;stroke-width:12.2;stroke-linecap:butt;stroke-linejoin:round;stroke:rgb(18.039216%,55.686277%,12.54902%);stroke-opacity:1;stroke-miterlimit:4;" d="M 145.937505 196.957139 C 150.294477 191.002611 154.506216 185.048084 160.170278 172.267635 C 165.689109 159.341953 175.855375 136.685702 179.631417 120.129211 C 183.407459 103.427488 183.116994 88.032856 182.971762 72.492991 " transform="matrix(0.0268966,0,0,0.0268966,2.731034,2.710345)"/>
<path style="fill:none;stroke-width:12;stroke-linecap:butt;stroke-linejoin:round;stroke:rgb(18.039216%,55.686277%,12.54902%);stroke-opacity:1;stroke-miterlimit:4;" d="M 112.969756 192.019238 C 108.031855 190.421682 102.948722 188.678893 103.674884 176.769838 C 104.401045 164.860783 116.3101 138.138026 117.326727 120.129211 C 118.198121 102.265629 109.048482 85.418673 109.338946 68.71695 C 109.774643 52.015226 114.567312 35.894432 119.505213 19.918871 " transform="matrix(0.0268966,0,0,0.0268966,2.731034,2.710345)"/>
<path style="fill:none;stroke-width:12.2;stroke-linecap:butt;stroke-linejoin:round;stroke:rgb(18.039216%,55.686277%,12.54902%);stroke-opacity:1;stroke-miterlimit:4;" d="M 95.54187 202.040272 C 92.782455 199.716554 89.877808 197.538068 89.732575 191.293076 C 89.587343 184.902851 96.848962 178.657859 94.815709 164.279854 C 92.782455 150.047081 79.711541 126.664668 77.533056 105.170276 C 75.499802 83.530652 78.840147 59.131613 82.035259 34.877806 " transform="matrix(0.0268966,0,0,0.0268966,2.731034,2.710345)"/>
<path style="fill:none;stroke-width:12.2;stroke-linecap:butt;stroke-linejoin:round;stroke:rgb(18.039216%,55.686277%,12.54902%);stroke-opacity:1;stroke-miterlimit:4;" d="M 64.316909 214.965953 C 58.507614 207.849567 52.843552 200.587948 45.4367 190.131217 C 38.029849 179.529253 24.232773 165.586945 20.166267 152.080334 C 15.954528 138.428491 18.568711 119.112584 20.601964 108.946318 C 22.635217 98.925284 27.427886 95.00401 32.220554 91.227968 " transform="matrix(0.0268966,0,0,0.0268966,2.731034,2.710345)"/>
<path style="fill:none;stroke-width:12.2;stroke-linecap:butt;stroke-linejoin:round;stroke:rgb(18.039216%,55.686277%,12.54902%);stroke-opacity:1;stroke-miterlimit:4;" d="M 83.487583 205.961546 C 75.209338 192.019238 66.931092 177.931697 60.6861 163.989389 C 54.441108 150.047081 45.581933 139.154653 46.01763 122.017232 C 46.453327 104.879812 55.16727 83.240187 63.73598 61.455331 " transform="matrix(0.0268966,0,0,0.0268966,2.731034,2.710345)"/>
<path style="fill:none;stroke-width:12.2;stroke-linecap:butt;stroke-linejoin:round;stroke:rgb(18.039216%,55.686277%,12.54902%);stroke-opacity:1;stroke-miterlimit:4;" d="M 45.001003 188.969358 C 52.262622 182.433901 59.379009 175.898444 63.300283 165.441713 C 67.076325 154.984982 67.512022 140.752209 68.092951 126.374203 " transform="matrix(0.0268966,0,0,0.0268966,2.731034,2.710345)"/>
<path style="fill:none;stroke-width:12.2;stroke-linecap:butt;stroke-linejoin:round;stroke:rgb(18.039216%,55.686277%,12.54902%);stroke-opacity:1;stroke-miterlimit:4;" d="M 118.052889 197.973765 C 126.04067 188.533661 134.02845 179.238789 137.949725 166.603572 C 142.016231 153.968355 142.016231 139.445117 142.306696 122.452929 C 142.451928 105.460741 139.402048 77.576125 139.111584 64.505211 C 138.966351 51.434297 140.12821 47.803487 140.999605 44.027446 " transform="matrix(0.0268966,0,0,0.0268966,2.731034,2.710345)"/>
<path style="fill:none;stroke-width:12.2;stroke-linecap:butt;stroke-linejoin:round;stroke:rgb(18.039216%,55.686277%,12.54902%);stroke-opacity:1;stroke-miterlimit:4;" d="M 131.995197 195.940512 C 138.240189 187.081337 144.485182 178.367394 148.115991 165.006016 C 151.7468 151.644637 151.311103 134.942914 153.925286 116.353169 C 156.684701 97.618193 160.460743 75.252407 164.091552 52.886621 " transform="matrix(0.0268966,0,0,0.0268966,2.731034,2.710345)"/>
<path style="fill:none;stroke-width:12;stroke-linecap:butt;stroke-linejoin:round;stroke:rgb(18.039216%,55.686277%,12.54902%);stroke-opacity:1;stroke-miterlimit:4;" d="M 110.065108 194.052491 C 127.928691 178.657859 145.937505 163.40846 158.42749 149.756616 C 171.207939 136.104773 178.179093 123.179091 185.731177 112.577128 C 193.573725 101.975164 200.399647 94.713545 204.611386 85.85437 C 208.677892 77.140428 209.839751 68.571717 211.00161 59.857775 " transform="matrix(0.0268966,0,0,0.0268966,2.731034,2.710345)"/>
</g>
</svg>

<?xml version="1.0" encoding="UTF-8"?>
<svg width="32" height="32" fill="none" version="1.1" viewBox="0 0 580 580" xmlns="http://www.w3.org/2000/svg" xmlns:cc="http://creativecommons.org/ns#" xmlns:dc="http://purl.org/dc/elements/1.1/" xmlns:rdf="http://www.w3.org/1999/02/22-rdf-syntax-ns#">
 <title>SEAGRA18</title>
 <desc>seagrass</desc>
 <metadata>
  <!-- Created for Openseamap, CC BY-SA 2.0, 2021-10-13, josail, seagrass simplified SVG based on IHO NCWG2-08.9A J13.4, https://legacy.iho.int/mtg_docs/com_wg/NCWG/NCWG2/NCWG2-08.9A%20seagrass.pdf -->
  <rdf:RDF>
   <cc:Work rdf:about="">
    <dc:title>SEAGRA18</dc:title>
   </cc:Work>
  </rdf:RDF>
 </metadata>
 <g transform="matrix(1.3 0 0 1.3 132 131)" fill="none" stroke="#2e8e20" stroke-linejoin="round">
  <path d="m61.5 216c14.3-5.53 28.4-11.1 42.2-14.2 13.6-3.24 25.8-4.92 39.8-4.92 14-0.12 29.3 2.28 44.6 4.56" stroke-width="13px"/>
  <path d="m182 201c-1.84-3.51-3.53-7.16-7.64-6.87-4.1 0.292-11.5 8.19-17.1 8.48-5.8 0.146-12.3-7.02-17.1-6.87-4.95 0-5.94 6.29-12.3 7.16-6.36 1.02-18.7-2.78-26-1.46-7.21 1.32-10.5 6.29-17.8 9.21-7.35 2.92-16.8 5.55-26.3 8.33" stroke-width="14.4px"/>
  <path d="m146 197c4.27-6.11 8.55-12.1 17.7-20.5 9.28-8.43 27.2-15.5 37.5-29.9 10.4-14.4 17.5-35.3 24.5-56.3" stroke-width="12.2px"/>
  <path d="m146 197c4.27-5.98 8.55-12 14.2-24.8 5.49-12.8 15.6-35.5 19.4-52.1 3.79-16.6 3.54-32.1 3.42-47.6" stroke-width="12.2px"/>
  <path d="m113 192c-5.01-1.65-10-3.29-9.28-15.2 0.733-12 12.6-38.6 13.6-56.6 0.855-18-8.3-34.8-7.94-51.5 0.366-16.7 5.25-32.8 10.1-48.8" stroke-width="12px"/>
  <g stroke-width="12.2px">
   <path d="m95.6 202c-2.81-2.32-5.74-4.52-5.86-10.7-0.122-6.35 7.08-12.6 5.01-27-1.95-14.3-15-37.6-17.2-59.2-2.08-21.5 1.22-45.9 4.52-70.2"/>
   <path d="m64.3 215c-5.74-7.2-11.5-14.4-18.9-24.9-7.33-10.5-21.1-24.5-25.3-38-4.15-13.6-1.47-33 0.488-43.1 2.08-10.1 6.84-14 11.6-17.8"/>
   <path d="m83.5 206c-8.3-14-16.6-28-22.8-42-6.23-14-15.1-24.9-14.7-42 0.488-17.1 9.16-38.8 17.7-60.6"/>
   <path d="m45 189c7.2-6.59 14.4-13.1 18.3-23.6 3.79-10.4 4.27-24.7 4.76-39"/>
   <path d="m118 198c8.06-9.4 16-18.8 20-31.4 4.03-12.6 4.03-27.2 4.27-44.2 0.122-17-2.93-44.8-3.17-57.9-0.122-13.1 0.977-16.7 1.95-20.5"/>
   <path d="m132 196c6.23-8.91 12.5-17.7 16.1-31 3.66-13.3 3.17-30 5.86-48.7s6.47-41 10.1-63.4"/>
  </g>
  <path d="m110 194c18-15.4 35.9-30.6 48.5-44.2 12.7-13.7 19.7-26.6 27.3-37.2 7.74-10.6 14.6-17.9 18.8-26.7 4.11-8.79 5.28-17.3 6.45-26" stroke-width="12px"/>
 </g>
</svg>
